src/mycujoo/svg/raw/ic_chat_24px.svg

<?xml version="1.0" encoding="UTF-8"?>
<svg width="50px" height="50px" viewBox="0 0 50 50" version="1.1" xmlns="http://www.w3.org/2000/svg" xmlns:xlink="http://www.w3.org/1999/xlink">
    <!-- Generator: sketchtool 55.1 (78136) - https://sketchapp.com -->
    <title>6D7E62CB-7945-4983-868B-18BC37680458</title>
    <desc>Created with sketchtool.</desc>
    <g id="like-no-login-FINAL" stroke="none" stroke-width="1" fill="none" fill-rule="evenodd">
        <g id="01_mobile-like-no-login" transform="translate(-24.000000, -435.000000)">
            <g id="alert" transform="translate(0.000000, 360.000000)">
                <g id="chat" transform="translate(18.000000, 76.000000)">
                    <g id="icon-chat" transform="translate(7.000000, 0.000000)">
                        <circle id="Oval" stroke="#000000" cx="24" cy="24" r="24"></circle>
                        <path d="M27.71875,12 C22.9712143,12 19.0746384,15.2268852 18.7732697,19.2914608 C14.251915,19.5150481 10,22.7291394 10,27.0763975 C10,28.8931196 10.7292175,30.6533866 12.0566406,32.0481158 C12.3192825,33.1154857 12.0004044,34.2468248 11.2091828,35.0268415 C11.0583954,35.1754935 11.0132828,35.3990807 11.0948563,35.5934249 C11.1764298,35.787566 11.3686218,35.9142857 11.5820312,35.9142857 C13.0859909,35.9142857 14.5353622,35.3328778 15.612297,34.3083569 C16.6614227,34.6608977 18.0302506,34.8745342 19.28125,34.8745342 C24.0281677,34.8745342 27.9243317,31.6484613 28.2265243,27.5846979 C29.3306503,27.5363657 30.4790649,27.33532 31.387703,27.0300961 C32.4646378,28.0546169 33.9140091,28.6360248 35.4179688,28.6360248 C35.6313782,28.6360248 35.8235702,28.5093051 35.9051437,28.315164 C35.9867172,28.1208198 35.9416046,27.8972326 35.7908172,27.7485807 C34.9995956,26.9685639 34.6807175,25.8372248 34.9433594,24.7698549 C36.2707825,23.3751257 37,21.6148588 37,19.7981366 C37,15.2811066 32.4205551,12 27.71875,12 Z M19.28125,33.8347826 C18.0366364,33.8347826 16.61837,33.5939339 15.6683273,33.2212886 C15.4648056,33.1412764 15.2322388,33.1938733 15.0841293,33.3532883 C14.447403,34.0394837 13.6195145,34.5179319 12.7174683,34.7378637 C13.2145309,33.7990411 13.341423,32.6922744 13.0390243,31.6435874 C13.0151291,31.5609353 12.9708405,31.4853909 12.9100723,31.4238587 C11.7136612,30.2090552 11.0546875,28.6650648 11.0546875,27.0763975 C11.0546875,23.4128979 14.8218994,20.3180124 19.28125,20.3180124 C23.4921722,20.3180124 27.1914062,23.2047445 27.1914062,27.0763975 C27.1914062,30.8030539 23.6429596,33.8347826 19.28125,33.8347826 Z M34.0899277,24.1455978 C34.0291595,24.2073331 33.9848709,24.2828775 33.9609757,24.3653265 C33.658577,25.4140135 33.7854691,26.5207803 34.2825317,27.4596028 C33.3804855,27.2398741 32.552597,26.7612228 31.9158707,26.0750274 C31.7677612,25.9158154 31.5351944,25.8630156 31.3316727,25.9430277 C30.5083161,26.2659193 29.3337402,26.4895065 28.2248764,26.5435248 C28.0707931,24.5775415 27.0760498,22.7297486 25.3753662,21.357764 L32.2539062,21.357764 C32.5451813,21.357764 32.78125,21.1250384 32.78125,20.8378882 C32.78125,20.550738 32.5451813,20.3180124 32.2539062,20.3180124 L23.7552261,20.3180124 C22.558197,19.7173122 21.2140885,19.3670053 19.8306351,19.2934916 C20.1336517,15.8017947 23.5558243,13.0397516 27.71875,13.0397516 C32.1781006,13.0397516 35.9453125,16.134637 35.9453125,19.7981366 C35.9453125,21.3868039 35.2863388,22.9307943 34.0899277,24.1455978 Z M32.2287671,17.0142857 L25.5712329,17.0142857 C25.2793878,17.0142857 25.0428571,17.2732868 25.0428571,17.5928571 C25.0428571,17.9124275 25.2793878,18.1714286 25.5712329,18.1714286 L32.2287671,18.1714286 C32.5206122,18.1714286 32.7571429,17.9124275 32.7571429,17.5928571 C32.7571429,17.2732868 32.5206122,17.0142857 32.2287671,17.0142857 Z M23.6928571,17.0142857 C23.3735128,17.0142857 23.1142857,17.2735128 23.1142857,17.5928571 C23.1142857,17.9122014 23.3735128,18.1714286 23.6928571,18.1714286 C24.0122014,18.1714286 24.2714286,17.9122014 24.2714286,17.5928571 C24.2714286,17.2735128 24.0122014,17.0142857 23.6928571,17.0142857 Z" id="Shape" fill="#000000" fill-rule="nonzero"></path>
                        <path d="M23.3573386,24.5 C23.6491836,24.5 23.8857143,24.7590011 23.8857143,25.0785714 C23.8857143,25.3981418 23.6491836,25.6571429 23.3573386,25.6571429 L16.6998043,25.6571429 C16.4079592,25.6571429 16.1714286,25.3981418 16.1714286,25.0785714 C16.1714286,24.7590011 16.4079592,24.5 16.6998043,24.5 L23.3573386,24.5 Z M23.3672811,27.5857143 C23.6536345,27.5857143 23.8857143,27.8447154 23.8857143,28.1642857 C23.8857143,28.4838561 23.6536345,28.7428571 23.3672811,28.7428571 L14.7612903,28.7428571 C14.474937,28.7428571 14.2428571,28.4838561 14.2428571,28.1642857 C14.2428571,27.8447154 14.474937,27.5857143 14.7612903,27.5857143 L23.3672811,27.5857143 Z M14.8214286,25.6571429 C14.5020843,25.6571429 14.2428571,25.3979157 14.2428571,25.0785714 C14.2428571,24.7592271 14.5020843,24.5 14.8214286,24.5 C15.1407729,24.5 15.4,24.7592271 15.4,25.0785714 C15.4,25.3979157 15.1407729,25.6571429 14.8214286,25.6571429 Z" id="Combined-Shape" fill="#38D430" fill-rule="nonzero"></path>
                    </g>
                </g>
            </g>
        </g>
    </g>
</svg>

<?xml version="1.0" encoding="UTF-8"?>
<svg width="50" height="50" viewBox="0 0 50 50" xmlns="http://www.w3.org/2000/svg"><g transform="translate(1 1)" fill="none" fill-rule="evenodd"><circle stroke="#000" cx="24" cy="24" r="24"/><path d="M27.719 12c-4.748 0-8.644 3.227-8.946 7.291C14.252 19.515 10 22.73 10 27.076c0 1.817.73 3.577 2.057 4.972a3.132 3.132 0 0 1-.848 2.979.515.515 0 0 0-.114.566c.081.195.274.321.487.321a5.861 5.861 0 0 0 4.03-1.606c1.05.353 2.418.567 3.67.567 4.746 0 8.642-3.227 8.945-7.29 1.104-.049 2.252-.25 3.16-.555a5.861 5.861 0 0 0 4.031 1.606.527.527 0 0 0 .487-.32.515.515 0 0 0-.114-.567 3.132 3.132 0 0 1-.848-2.98C36.271 23.376 37 21.616 37 19.8 37 15.28 32.42 12 27.719 12zM19.28 33.835c-1.244 0-2.663-.241-3.613-.614a.533.533 0 0 0-.584.132 4.772 4.772 0 0 1-2.367 1.385 4.15 4.15 0 0 0 .322-3.094.517.517 0 0 0-.129-.22c-1.196-1.215-1.855-2.759-1.855-4.348 0-3.663 3.767-6.758 8.226-6.758 4.211 0 7.91 2.887 7.91 6.758 0 3.727-3.548 6.759-7.91 6.759zm14.809-9.69a.52.52 0 0 0-.129.22 4.15 4.15 0 0 0 .322 3.095 4.77 4.77 0 0 1-2.367-1.385.533.533 0 0 0-.584-.132c-.824.323-1.998.547-3.107.6-.154-1.965-1.149-3.813-2.85-5.185h6.879a.524.524 0 0 0 .527-.52.524.524 0 0 0-.527-.52h-8.499a9.946 9.946 0 0 0-3.924-1.025c.303-3.491 3.725-6.253 7.888-6.253 4.46 0 8.226 3.095 8.226 6.758 0 1.589-.659 3.133-1.855 4.348zm-1.861-7.13H25.57c-.292 0-.528.258-.528.578 0 .32.236.578.528.578h6.658c.292 0 .528-.259.528-.578 0-.32-.236-.579-.528-.579zm-8.536 0a.579.579 0 1 0 0 1.157.579.579 0 0 0 0-1.158z" fill="#000" fill-rule="nonzero"/><path d="M23.357 24.5c.292 0 .529.259.529.579 0 .32-.237.578-.529.578H16.7c-.292 0-.529-.259-.529-.578 0-.32.237-.579.529-.579h6.657zm.01 3.086c.287 0 .519.259.519.578 0 .32-.232.579-.519.579h-8.606c-.286 0-.518-.26-.518-.579 0-.32.232-.578.518-.578h8.606zm-8.546-1.929a.579.579 0 1 1 0-1.157.579.579 0 0 1 0 1.157z" fill="#38D430" fill-rule="nonzero"/></g></svg>
